projects/icons/svg/record.svg

<?xml version="1.0" encoding="UTF-8" standalone="no"?>
<svg
   viewBox="0 0 700 700"
   version="1.1"
   id="svg9724"
   sodipodi:docname="record.svg"
   inkscape:version="1.3.2 (091e20ef0f, 2023-11-25)"
   width="700"
   height="700"
   xmlns:inkscape="http://www.inkscape.org/namespaces/inkscape"
   xmlns:sodipodi="http://sodipodi.sourceforge.net/DTD/sodipodi-0.dtd"
   xmlns="http://www.w3.org/2000/svg"
   xmlns:svg="http://www.w3.org/2000/svg">
  <defs
     id="defs9728" />
  <sodipodi:namedview
     id="namedview9726"
     pagecolor="#ffffff"
     bordercolor="#666666"
     borderopacity="1.0"
     inkscape:showpageshadow="2"
     inkscape:pageopacity="0.0"
     inkscape:pagecheckerboard="0"
     inkscape:deskcolor="#d1d1d1"
     showgrid="true"
     inkscape:zoom="0.84118632"
     inkscape:cx="149.19406"
     inkscape:cy="402.40788"
     inkscape:window-width="1920"
     inkscape:window-height="1048"
     inkscape:window-x="0"
     inkscape:window-y="0"
     inkscape:window-maximized="1"
     inkscape:current-layer="svg9724"
     showguides="true">
    <inkscape:grid
       type="xygrid"
       id="grid9972"
       originx="0"
       originy="0"
       spacingy="1"
       spacingx="1"
       units="px"
       visible="true" />
    <sodipodi:guide
       position="-260,300"
       orientation="0,-1"
       id="guide383"
       inkscape:locked="false" />
    <sodipodi:guide
       position="300,520"
       orientation="1,0"
       id="guide385"
       inkscape:locked="false" />
    <sodipodi:guide
       position="240,520"
       orientation="0,-1"
       id="guide939"
       inkscape:locked="false" />
    <sodipodi:guide
       position="220,80"
       orientation="0,-1"
       id="guide941"
       inkscape:locked="false" />
  </sodipodi:namedview>
  <g
     id="g1"
     transform="translate(50,50)">
    <path
       style="color:#000000;fill:#000000;stroke-linecap:round;stroke-linejoin:round;-inkscape-stroke:none;paint-order:stroke fill markers"
       d="M 295,0 C 234.75195,0 185,49.75195 185,110 v 140 c 0,60.24805 49.75195,110 110,110 h 10 c 60.24805,0 110,-49.75195 110,-110 V 110 C 415,49.75195 365.24805,0 305,0 Z m 0,80 h 10 c 17.31187,0 30,12.688128 30,30 v 140 c 0,17.31187 -12.68813,30 -30,30 h -10 c -17.31187,0 -30,-12.68813 -30,-30 V 110 c 0,-17.311872 12.68813,-30 30,-30 z"
       id="rect350" />
    <path
       id="path1141"
       style="color:#000000;fill:#000000;-inkscape-stroke:none"
       d="m 120,200 a 40,40 0 0 0 -40,40 c 0,107.37033 77.91528,197.31738 180,216.26562 V 520 h -60 a 40,40 0 0 0 -40,40 40,40 0 0 0 40,40 h 60 80 60 a 40,40 0 0 0 40,-40 40,40 0 0 0 -40,-40 H 340 V 456.26562 C 442.08472,437.31738 520,347.37033 520,240 a 40,40 0 0 0 -40,-40 40,40 0 0 0 -40,40 c 0,77.79349 -62.20651,140 -140,140 -77.79349,0 -140,-62.20651 -140,-140 a 40,40 0 0 0 -40,-40 z" />
  </g>
</svg>

<?xml version="1.0" encoding="UTF-8" standalone="no"?>
<svg
   viewBox="0 0 600 600"
   version="1.1"
   id="svg9724"
   sodipodi:docname="record.svg"
   inkscape:version="1.2.2 (1:1.2.2+202212051550+b0a8486541)"
   width="600"
   height="600"
   xmlns:inkscape="http://www.inkscape.org/namespaces/inkscape"
   xmlns:sodipodi="http://sodipodi.sourceforge.net/DTD/sodipodi-0.dtd"
   xmlns="http://www.w3.org/2000/svg"
   xmlns:svg="http://www.w3.org/2000/svg">
  <defs
     id="defs9728" />
  <sodipodi:namedview
     id="namedview9726"
     pagecolor="#ffffff"
     bordercolor="#666666"
     borderopacity="1.0"
     inkscape:showpageshadow="2"
     inkscape:pageopacity="0.0"
     inkscape:pagecheckerboard="0"
     inkscape:deskcolor="#d1d1d1"
     showgrid="true"
     inkscape:zoom="0.84118632"
     inkscape:cx="149.19406"
     inkscape:cy="402.40788"
     inkscape:window-width="1920"
     inkscape:window-height="1009"
     inkscape:window-x="0"
     inkscape:window-y="1080"
     inkscape:window-maximized="1"
     inkscape:current-layer="svg9724"
     showguides="true">
    <inkscape:grid
       type="xygrid"
       id="grid9972"
       originx="0"
       originy="0" />
    <sodipodi:guide
       position="-260,300"
       orientation="0,-1"
       id="guide383"
       inkscape:locked="false" />
    <sodipodi:guide
       position="300,520"
       orientation="1,0"
       id="guide385"
       inkscape:locked="false" />
    <sodipodi:guide
       position="240,520"
       orientation="0,-1"
       id="guide939"
       inkscape:locked="false" />
    <sodipodi:guide
       position="220,80"
       orientation="0,-1"
       id="guide941"
       inkscape:locked="false" />
  </sodipodi:namedview>

  <path
     style="color:#000000;fill:#000000;stroke-linecap:round;stroke-linejoin:round;-inkscape-stroke:none;paint-order:stroke fill markers"
     d="M 295,0 C 234.75195,0 185,49.75195 185,110 v 140 c 0,60.24805 49.75195,110 110,110 h 10 c 60.24805,0 110,-49.75195 110,-110 V 110 C 415,49.75195 365.24805,0 305,0 Z m 0,80 h 10 c 17.31187,0 30,12.688128 30,30 v 140 c 0,17.31187 -12.68813,30 -30,30 h -10 c -17.31187,0 -30,-12.68813 -30,-30 V 110 c 0,-17.311872 12.68813,-30 30,-30 z"
     id="rect350" />
  <path
     id="path1141"
     style="color:#000000;fill:#000000;-inkscape-stroke:none"
     d="M 120 200 A 40 40 0 0 0 80 240 C 80 347.37033 157.91528 437.31738 260 456.26562 L 260 520 L 200 520 A 40 40 0 0 0 160 560 A 40 40 0 0 0 200 600 L 260 600 L 340 600 L 400 600 A 40 40 0 0 0 440 560 A 40 40 0 0 0 400 520 L 340 520 L 340 456.26562 C 442.08472 437.31738 520 347.37033 520 240 A 40 40 0 0 0 480 200 A 40 40 0 0 0 440 240 C 440 317.79349 377.79349 380 300 380 C 222.20651 380 160 317.79349 160 240 A 40 40 0 0 0 120 200 z " />
</svg>
